images/logo-footer.svg

<svg width="188" height="86" viewBox="0 0 188 86" fill="none" xmlns="http://www.w3.org/2000/svg">
<rect x="0.5" width="187" height="85.2524" rx="20" fill="white"/>
<path d="M26.1566 37.9133L43.1262 27.543L60.0958 37.9133" stroke="#0468FF" stroke-width="4.68937" stroke-linecap="round" stroke-linejoin="round"/>
<path d="M56.3248 46.3867V58.454C56.3248 59.0789 55.8184 59.5853 55.1935 59.5853H31.0589C30.4341 59.5853 29.9276 59.0789 29.9276 58.454V46.3867" stroke="#0468FF" stroke-width="4.68937" stroke-linecap="round" stroke-linejoin="round"/>
<path d="M73.3 56.9023V53.5576H73.773V56.4866H75.6365V53.5576H76.1096V56.9023H73.3ZM76.1813 57.6621V56.7781L76.2959 56.9023H75.6365V56.4866H76.6256V57.6621H76.1813ZM78.0309 55.0006H79.7511V55.4068H78.0309V55.0006ZM78.0739 56.4866H80.0234V56.9023H77.5961V53.5576H79.9565V53.9733H78.0739V56.4866ZM83.5069 53.5576H83.9847V56.9023H83.5069V53.5576ZM81.5861 56.9023H81.1083V53.5576H81.5861V56.9023ZM83.5499 55.4115H81.5383V54.9958H83.5499V55.4115ZM86.0456 56.9023V53.8491L86.1651 53.9733H84.9036V53.5576H87.6607V53.9733H86.3992L86.5139 53.8491V56.9023H86.0456ZM88.5759 56.9023V53.5576H89.8803C90.1734 53.5576 90.4234 53.6038 90.6305 53.6962C90.8376 53.7885 90.9968 53.9223 91.1083 54.0975C91.2198 54.2727 91.2756 54.4814 91.2756 54.7235C91.2756 54.9656 91.2198 55.1742 91.1083 55.3494C90.9968 55.5214 90.8376 55.6552 90.6305 55.7508C90.4234 55.8432 90.1734 55.8894 89.8803 55.8894H88.8387L89.0537 55.6648V56.9023H88.5759ZM89.0537 55.7126L88.8387 55.4737H89.866C90.1718 55.4737 90.4027 55.4084 90.5588 55.2778C90.7181 55.1472 90.7977 54.9624 90.7977 54.7235C90.7977 54.4846 90.7181 54.2998 90.5588 54.1692C90.4027 54.0386 90.1718 53.9733 89.866 53.9733H88.8387L89.0537 53.7344V55.7126ZM93.939 56.9023V53.5576H94.4121V56.4866H96.2756V53.5576H96.7486V56.9023H93.939ZM96.8203 57.6621V56.7781L96.935 56.9023H96.2756V56.4866H97.2647V57.6621H96.8203ZM98.2351 56.9023V53.5576H98.7082V56.1378L100.686 53.5576H101.126V56.9023H100.658V54.3269L98.6747 56.9023H98.2351ZM104.137 56.6778C103.73 56.6778 103.381 56.622 103.091 56.5105C102.801 56.3959 102.58 56.2302 102.427 56.0136C102.274 55.797 102.197 55.5342 102.197 55.2252C102.197 54.9162 102.274 54.6534 102.427 54.4368C102.58 54.2202 102.801 54.0545 103.091 53.9399C103.381 53.8252 103.73 53.7678 104.137 53.7678C104.144 53.7678 104.155 53.7678 104.171 53.7678C104.19 53.7678 104.207 53.7678 104.223 53.7678C104.242 53.7678 104.254 53.7678 104.257 53.7678C104.665 53.7678 105.012 53.8252 105.298 53.9399C105.588 54.0545 105.81 54.2202 105.963 54.4368C106.116 54.6534 106.192 54.9162 106.192 55.2252C106.192 55.531 106.116 55.7938 105.963 56.0136C105.813 56.2302 105.595 56.3959 105.308 56.5105C105.025 56.622 104.68 56.6778 104.276 56.6778C104.27 56.6778 104.255 56.6778 104.233 56.6778C104.214 56.6778 104.195 56.6778 104.176 56.6778C104.156 56.6778 104.144 56.6778 104.137 56.6778ZM104.19 56.3051C104.196 56.3051 104.204 56.3051 104.214 56.3051C104.223 56.3051 104.228 56.3051 104.228 56.3051C104.553 56.3019 104.827 56.2605 105.05 56.1808C105.273 56.098 105.442 55.977 105.556 55.8177C105.674 55.6552 105.733 55.4561 105.733 55.2204C105.733 54.9879 105.674 54.792 105.556 54.6327C105.439 54.4734 105.268 54.3524 105.045 54.2696C104.825 54.1867 104.556 54.1453 104.238 54.1453C104.235 54.1453 104.227 54.1453 104.214 54.1453C104.204 54.1453 104.196 54.1453 104.19 54.1453C103.862 54.1453 103.583 54.1867 103.354 54.2696C103.128 54.3492 102.956 54.4686 102.838 54.6279C102.72 54.7872 102.661 54.9863 102.661 55.2252C102.661 55.4641 102.721 55.6632 102.842 55.8225C102.964 55.9817 103.137 56.1028 103.363 56.1856C103.593 56.2653 103.868 56.3051 104.19 56.3051ZM103.975 57.0266V53.4334H104.419V57.0266H103.975ZM107.261 56.9023V53.5576H108.566C108.859 53.5576 109.109 53.6038 109.316 53.6962C109.523 53.7885 109.682 53.9223 109.794 54.0975C109.905 54.2727 109.961 54.4814 109.961 54.7235C109.961 54.9656 109.905 55.1742 109.794 55.3494C109.682 55.5214 109.523 55.6552 109.316 55.7508C109.109 55.8432 108.859 55.8894 108.566 55.8894H107.524L107.739 55.6648V56.9023H107.261ZM107.739 55.7126L107.524 55.4737H108.551C108.857 55.4737 109.088 55.4084 109.244 55.2778C109.403 55.1472 109.483 54.9624 109.483 54.7235C109.483 54.4846 109.403 54.2998 109.244 54.1692C109.088 54.0386 108.857 53.9733 108.551 53.9733H107.524L107.739 53.7344V55.7126ZM112.512 56.9406C112.257 56.9406 112.02 56.8976 111.8 56.8116C111.583 56.7256 111.395 56.6061 111.236 56.4532C111.077 56.2971 110.953 56.1155 110.863 55.9085C110.774 55.7014 110.73 55.4753 110.73 55.23C110.73 54.9847 110.774 54.7585 110.863 54.5515C110.953 54.3444 111.077 54.1644 111.236 54.0115C111.395 53.8554 111.583 53.7344 111.8 53.6484C112.017 53.5624 112.254 53.5194 112.512 53.5194C112.767 53.5194 113.001 53.5624 113.214 53.6484C113.431 53.7312 113.619 53.8507 113.778 54.0068C113.941 54.1597 114.065 54.3396 114.151 54.5467C114.24 54.7537 114.285 54.9815 114.285 55.23C114.285 55.4784 114.24 55.7062 114.151 55.9133C114.065 56.1203 113.941 56.3019 113.778 56.458C113.619 56.6109 113.431 56.7303 113.214 56.8163C113.001 56.8992 112.767 56.9406 112.512 56.9406ZM112.512 56.5153C112.697 56.5153 112.867 56.4835 113.023 56.4197C113.182 56.356 113.319 56.2668 113.434 56.1522C113.552 56.0343 113.643 55.8973 113.706 55.7412C113.773 55.5852 113.807 55.4147 113.807 55.23C113.807 55.0452 113.773 54.8748 113.706 54.7187C113.643 54.5626 113.552 54.4272 113.434 54.3126C113.319 54.1947 113.182 54.1039 113.023 54.0402C112.867 53.9765 112.697 53.9446 112.512 53.9446C112.324 53.9446 112.15 53.9765 111.991 54.0402C111.835 54.1039 111.698 54.1947 111.58 54.3126C111.462 54.4272 111.37 54.5626 111.303 54.7187C111.239 54.8748 111.207 55.0452 111.207 55.23C111.207 55.4147 111.239 55.5852 111.303 55.7412C111.37 55.8973 111.462 56.0343 111.58 56.1522C111.698 56.2668 111.835 56.356 111.991 56.4197C112.15 56.4835 112.324 56.5153 112.512 56.5153ZM115.391 56.9023V53.5576H116.83C117.193 53.5576 117.478 53.6309 117.685 53.7774C117.892 53.9239 117.996 54.1374 117.996 54.4177C117.996 54.6916 117.897 54.9019 117.699 55.0484C117.502 55.1917 117.242 55.2634 116.921 55.2634L117.007 55.1201C117.379 55.1201 117.664 55.1949 117.862 55.3446C118.062 55.4912 118.163 55.7062 118.163 55.9897C118.163 56.2764 118.058 56.501 117.847 56.6634C117.64 56.8227 117.331 56.9023 116.921 56.9023H115.391ZM115.865 56.5249H116.911C117.166 56.5249 117.357 56.4787 117.484 56.3863C117.615 56.2907 117.68 56.1458 117.68 55.9515C117.68 55.7572 117.615 55.6154 117.484 55.5262C117.357 55.437 117.166 55.3924 116.911 55.3924H115.865V56.5249ZM115.865 55.0293H116.796C117.029 55.0293 117.206 54.9831 117.327 54.8907C117.451 54.7983 117.513 54.663 117.513 54.4846C117.513 54.303 117.451 54.166 117.327 54.0736C117.206 53.9813 117.029 53.9351 116.796 53.9351H115.865V55.0293ZM120.763 54.7235C121.158 54.7235 121.462 54.8127 121.675 54.9911C121.889 55.1663 121.995 55.4291 121.995 55.7795C121.995 56.149 121.879 56.4293 121.646 56.6204C121.417 56.8084 121.094 56.9023 120.677 56.9023H119.296V53.5576H119.769V54.7235H120.763ZM120.657 56.5249C120.935 56.5249 121.146 56.4627 121.293 56.3385C121.443 56.2143 121.517 56.0311 121.517 55.789C121.517 55.5533 121.444 55.3797 121.298 55.2682C121.151 55.1567 120.938 55.101 120.657 55.101H119.769V56.5249H120.657ZM122.526 56.9023V53.5576H122.999V56.9023H122.526ZM124.017 53.5576H124.567L125.441 54.7808L126.316 53.5576H126.875L125.742 55.1631L126.965 56.9023H126.402L125.441 55.5692L124.486 56.9023H123.936L125.154 55.1822L124.017 53.5576ZM130.203 56.9023V53.8491L130.322 53.9733H129.061V53.5576H131.818V53.9733H130.556L130.671 53.8491V56.9023H130.203ZM133.168 55.0006H134.888V55.4068H133.168V55.0006ZM133.211 56.4866H135.16V56.9023H132.733V53.5576H135.093V53.9733H133.211V56.4866ZM135.849 53.5576H136.399L137.273 54.7808L138.148 53.5576H138.707L137.574 55.1631L138.798 56.9023H138.234L137.273 55.5692L136.318 56.9023H135.768L136.987 55.1822L135.849 53.5576ZM142.021 53.5576H142.498V56.9023H142.021V53.5576ZM140.1 56.9023H139.622V53.5576H140.1V56.9023ZM142.064 55.4115H140.052V54.9958H142.064V55.4115ZM145.381 56.9406C145.126 56.9406 144.889 56.8976 144.669 56.8116C144.453 56.7256 144.265 56.6061 144.105 56.4532C143.946 56.2971 143.822 56.1155 143.733 55.9085C143.644 55.7014 143.599 55.4753 143.599 55.23C143.599 54.9847 143.644 54.7585 143.733 54.5515C143.822 54.3444 143.946 54.1644 144.105 54.0115C144.265 53.8554 144.453 53.7344 144.669 53.6484C144.886 53.5624 145.123 53.5194 145.381 53.5194C145.636 53.5194 145.87 53.5624 146.084 53.6484C146.3 53.7312 146.488 53.8507 146.647 54.0068C146.81 54.1597 146.934 54.3396 147.02 54.5467C147.109 54.7537 147.154 54.9815 147.154 55.23C147.154 55.4784 147.109 55.7062 147.02 55.9133C146.934 56.1203 146.81 56.3019 146.647 56.458C146.488 56.6109 146.3 56.7303 146.084 56.8163C145.87 56.8992 145.636 56.9406 145.381 56.9406ZM145.381 56.5153C145.566 56.5153 145.736 56.4835 145.893 56.4197C146.052 56.356 146.189 56.2668 146.303 56.1522C146.421 56.0343 146.512 55.8973 146.576 55.7412C146.643 55.5852 146.676 55.4147 146.676 55.23C146.676 55.0452 146.643 54.8748 146.576 54.7187C146.512 54.5626 146.421 54.4272 146.303 54.3126C146.189 54.1947 146.052 54.1039 145.893 54.0402C145.736 53.9765 145.566 53.9446 145.381 53.9446C145.193 53.9446 145.02 53.9765 144.86 54.0402C144.704 54.1039 144.567 54.1947 144.449 54.3126C144.332 54.4272 144.239 54.5626 144.172 54.7187C144.109 54.8748 144.077 55.0452 144.077 55.23C144.077 55.4147 144.109 55.5852 144.172 55.7412C144.239 55.8973 144.332 56.0343 144.449 56.1522C144.567 56.2668 144.704 56.356 144.86 56.4197C145.02 56.4835 145.193 56.5153 145.381 56.5153ZM148.01 56.9406C147.962 56.9406 147.914 56.9374 147.867 56.931C147.819 56.9246 147.766 56.9151 147.709 56.9023L147.742 56.4771C147.793 56.4898 147.844 56.4962 147.895 56.4962C148.035 56.4962 148.147 56.4405 148.23 56.329C148.312 56.2175 148.373 56.0486 148.411 55.8225C148.453 55.5963 148.48 55.3112 148.492 54.9672L148.545 53.5576H150.901V56.9023H150.432V53.8491L150.547 53.9733H148.851L148.956 53.8443L148.918 54.9528C148.908 55.2841 148.886 55.574 148.851 55.8225C148.816 56.0709 148.763 56.278 148.693 56.4436C148.623 56.6093 148.532 56.7335 148.421 56.8163C148.312 56.8992 148.175 56.9406 148.01 56.9406ZM153.782 56.9406C153.527 56.9406 153.29 56.8976 153.07 56.8116C152.854 56.7256 152.666 56.6061 152.506 56.4532C152.347 56.2971 152.223 56.1155 152.134 55.9085C152.044 55.7014 152 55.4753 152 55.23C152 54.9847 152.044 54.7585 152.134 54.5515C152.223 54.3444 152.347 54.1644 152.506 54.0115C152.666 53.8554 152.854 53.7344 153.07 53.6484C153.287 53.5624 153.524 53.5194 153.782 53.5194C154.037 53.5194 154.271 53.5624 154.484 53.6484C154.701 53.7312 154.889 53.8507 155.048 54.0068C155.211 54.1597 155.335 54.3396 155.421 54.5467C155.51 54.7537 155.555 54.9815 155.555 55.23C155.555 55.4784 155.51 55.7062 155.421 55.9133C155.335 56.1203 155.211 56.3019 155.048 56.458C154.889 56.6109 154.701 56.7303 154.484 56.8163C154.271 56.8992 154.037 56.9406 153.782 56.9406ZM153.782 56.5153C153.967 56.5153 154.137 56.4835 154.293 56.4197C154.453 56.356 154.59 56.2668 154.704 56.1522C154.822 56.0343 154.913 55.8973 154.977 55.7412C155.044 55.5852 155.077 55.4147 155.077 55.23C155.077 55.0452 155.044 54.8748 154.977 54.7187C154.913 54.5626 154.822 54.4272 154.704 54.3126C154.59 54.1947 154.453 54.1039 154.293 54.0402C154.137 53.9765 153.967 53.9446 153.782 53.9446C153.594 53.9446 153.421 53.9765 153.261 54.0402C153.105 54.1039 152.968 54.1947 152.85 54.3126C152.732 54.4272 152.64 54.5626 152.573 54.7187C152.51 54.8748 152.478 55.0452 152.478 55.23C152.478 55.4147 152.51 55.5852 152.573 55.7412C152.64 55.8973 152.732 56.0343 152.85 56.1522C152.968 56.2668 153.105 56.356 153.261 56.4197C153.421 56.4835 153.594 56.5153 153.782 56.5153ZM156.662 56.9023V53.5576H158.855L158.85 53.9733H157.015L157.13 53.8539L157.135 56.9023H156.662ZM159.759 56.9023V53.5576H160.232V56.1378L162.21 53.5576H162.649V56.9023H162.181V54.3269L160.198 56.9023H159.759ZM164.027 56.9023V53.5576H164.5V56.1378L166.478 53.5576H166.917V56.9023H166.449V54.3269L164.466 56.9023H164.027ZM165.465 53.3235C165.204 53.3235 165.001 53.2661 164.858 53.1515C164.718 53.0368 164.646 52.8759 164.643 52.6689H164.982C164.986 52.7931 165.03 52.8902 165.116 52.9603C165.202 53.0272 165.318 53.0607 165.465 53.0607C165.608 53.0607 165.723 53.0272 165.809 52.9603C165.898 52.8902 165.944 52.7931 165.948 52.6689H166.282C166.279 52.8759 166.206 53.0368 166.062 53.1515C165.922 53.2661 165.723 53.3235 165.465 53.3235Z" fill="#7F7F7F"/>
<path d="M81.1408 46.7286C80.0232 46.7286 78.9922 46.549 78.0476 46.1898C77.103 45.8306 76.2781 45.325 75.573 44.6731C74.8812 44.0079 74.3424 43.2363 73.9566 42.3582C73.5708 41.4802 73.3779 40.5156 73.3779 39.4646C73.3779 38.4136 73.5708 37.4491 73.9566 36.571C74.3424 35.6929 74.8812 34.9279 75.573 34.276C76.2781 33.6108 77.103 33.0986 78.0476 32.7394C78.9922 32.3802 80.0232 32.2006 81.1408 32.2006C82.2716 32.2006 83.3027 32.3802 84.2339 32.7394C85.1785 33.0986 85.9967 33.6108 86.6885 34.276C87.3803 34.9279 87.9191 35.6929 88.305 36.571C88.7041 37.4491 88.9036 38.4136 88.9036 39.4646C88.9036 40.5156 88.7041 41.4868 88.305 42.3782C87.9191 43.2563 87.3803 44.0212 86.6885 44.6731C85.9967 45.325 85.1785 45.8306 84.2339 46.1898C83.3027 46.549 82.2716 46.7286 81.1408 46.7286ZM81.1408 43.4558C81.6729 43.4558 82.1652 43.3627 82.6175 43.1764C83.0831 42.9902 83.4823 42.7241 83.8149 42.3782C84.1608 42.019 84.4268 41.5933 84.6131 41.101C84.8127 40.6088 84.9124 40.0633 84.9124 39.4646C84.9124 38.8526 84.8127 38.3072 84.6131 37.8282C84.4268 37.336 84.1608 36.9169 83.8149 36.571C83.4823 36.2118 83.0831 35.939 82.6175 35.7528C82.1652 35.5665 81.6729 35.4734 81.1408 35.4734C80.6086 35.4734 80.1097 35.5665 79.644 35.7528C79.1917 35.939 78.7926 36.2118 78.4467 36.571C78.1141 36.9169 77.848 37.336 77.6484 37.8282C77.4622 38.3072 77.3691 38.8526 77.3691 39.4646C77.3691 40.0633 77.4622 40.6088 77.6484 41.101C77.848 41.5933 78.1141 42.019 78.4467 42.3782C78.7926 42.7241 79.1917 42.9902 79.644 43.1764C80.1097 43.3627 80.6086 43.4558 81.1408 43.4558ZM91.0163 46.4492V32.48H94.9078V43.3161H100.276V32.48H104.167V46.4492H91.0163ZM102.471 49.3029V45.5712L103.289 46.4492H100.276V43.3161H106.083V49.3029H102.471ZM111.584 37.8881H118.069V40.8416H111.584V37.8881ZM111.863 43.3959H119.167V46.4492H107.952V32.48H118.908V35.5333H111.863V43.3959ZM130.758 32.48H134.709V46.4492H130.758V32.48ZM125.369 46.4492H121.418V32.48H125.369V46.4492ZM131.037 41.0012H125.09V37.7284H131.037V41.0012ZM146.531 46.4492L142.6 39.8039L145.773 37.928L150.981 46.4492H146.531ZM137.63 46.4492V32.48H141.562V46.4492H137.63ZM140.424 41.101V37.908H145.493V41.101H140.424ZM146.152 39.8837L142.5 39.4846L146.79 32.48H150.941L146.152 39.8837ZM150.52 46.4492L156.687 32.48H160.578L166.765 46.4492H162.654L157.824 34.4157H159.381L154.551 46.4492H150.52ZM153.893 43.7352L154.911 40.8216H161.736L162.753 43.7352H153.893Z" fill="#152242"/>
</svg>

<svg width="188" height="86" fill="none" xmlns="http://www.w3.org/2000/svg"><rect x=".5" width="187" height="85.252" rx="20" fill="#fff"/><path d="m26.157 37.913 16.97-10.37 16.969 10.37M56.325 46.387v12.067c0 .625-.507 1.131-1.132 1.131H31.06a1.131 1.131 0 0 1-1.131-1.131V46.387" stroke="#0468FF" stroke-width="4.689" stroke-linecap="round" stroke-linejoin="round"/><path d="M73.3 56.902v-3.344h.473v2.929h1.864v-2.93h.473v3.345H73.3Zm2.881.76v-.884l.115.124h-.66v-.415h.99v1.175h-.445Zm1.85-2.661h1.72v.406h-1.72V55Zm.043 1.486h1.95v.415h-2.428v-3.344h2.36v.415h-1.882v2.514Zm5.433-2.93h.478v3.345h-.478v-3.344Zm-1.92 3.345h-.479v-3.344h.478v3.344Zm1.963-1.49h-2.012v-.416h2.012v.415Zm2.496 1.49V53.85l.12.124h-1.262v-.415h2.757v.415h-1.262l.115-.124v3.053h-.468Zm2.53 0v-3.344h1.304c.293 0 .543.046.75.138.208.093.367.226.478.401.112.176.168.384.168.627 0 .242-.056.45-.168.625-.111.172-.27.306-.478.402a1.834 1.834 0 0 1-.75.138H88.84l.215-.224v1.237h-.478Zm.478-1.19-.215-.238h1.027c.306 0 .537-.066.693-.196.16-.13.239-.316.239-.554 0-.24-.08-.424-.24-.555-.155-.13-.386-.196-.692-.196h-1.027l.215-.239v1.979Zm4.885 1.19v-3.344h.473v2.929h1.864v-2.93h.473v3.345h-2.81Zm2.881.76v-.884l.115.124h-.66v-.415h.99v1.175h-.445Zm1.415-.76v-3.344h.473v2.58l1.978-2.58h.44v3.344h-.468v-2.575l-1.983 2.575h-.44Zm5.902-.224c-.407 0-.756-.056-1.046-.167a1.428 1.428 0 0 1-.664-.497 1.332 1.332 0 0 1-.23-.789c0-.309.077-.572.23-.788.153-.217.374-.383.664-.497.29-.115.639-.172 1.046-.172h.12c.408 0 .755.057 1.041.172.29.114.512.28.665.497.153.216.229.48.229.788 0 .306-.076.569-.229.789-.15.216-.368.382-.655.496-.283.112-.628.168-1.032.168h-.139Zm.053-.373h.038c.325-.003.599-.044.822-.124a1.05 1.05 0 0 0 .506-.363.99.99 0 0 0 .177-.598.96.96 0 0 0-.177-.587 1.079 1.079 0 0 0-.511-.363 2.3 2.3 0 0 0-.807-.125h-.048a2.47 2.47 0 0 0-.836.125c-.226.08-.398.199-.516.358a.976.976 0 0 0-.177.597c0 .24.06.438.181.597.122.16.295.28.521.364.23.08.505.12.827.12Zm-.215.722v-3.594h.444v3.594h-.444Zm3.286-.125v-3.344h1.305c.293 0 .543.046.75.138.207.093.366.226.478.401.111.176.167.384.167.627 0 .242-.056.45-.167.625a1.107 1.107 0 0 1-.478.402 1.833 1.833 0 0 1-.75.138h-1.042l.215-.224v1.237h-.478Zm.478-1.19-.215-.238h1.027c.306 0 .537-.066.693-.196.159-.13.239-.316.239-.554 0-.24-.08-.424-.239-.555-.156-.13-.387-.196-.693-.196h-1.027l.215-.239v1.979Zm4.773 1.229c-.255 0-.492-.043-.712-.13a1.716 1.716 0 0 1-.564-.358 1.711 1.711 0 0 1-.373-.545 1.7 1.7 0 0 1-.133-.678 1.656 1.656 0 0 1 .506-1.218c.159-.157.347-.278.564-.364.217-.086.454-.129.712-.129.255 0 .489.043.702.13.217.082.405.202.564.358.163.153.287.333.373.54.089.207.134.434.134.683 0 .248-.045.476-.134.683-.086.207-.21.389-.373.545a1.716 1.716 0 0 1-.564.358 1.92 1.92 0 0 1-.702.125Zm0-.426c.185 0 .355-.032.511-.095a1.215 1.215 0 0 0 .683-.679c.067-.156.101-.326.101-.511s-.034-.355-.101-.511a1.17 1.17 0 0 0-.272-.406 1.18 1.18 0 0 0-.411-.273 1.338 1.338 0 0 0-.511-.095 1.39 1.39 0 0 0-.521.095 1.237 1.237 0 0 0-.411.273c-.118.114-.21.25-.277.406a1.335 1.335 0 0 0-.096.511c0 .185.032.355.096.511.067.156.159.293.277.411.118.115.255.204.411.268.159.063.333.095.521.095Zm2.879.387v-3.344h1.439c.363 0 .648.073.855.22.207.146.311.36.311.64 0 .274-.099.484-.297.63-.197.144-.457.215-.778.215l.086-.143c.372 0 .657.075.855.225.2.146.301.361.301.645 0 .286-.105.511-.316.673-.207.16-.516.24-.926.24h-1.53Zm.474-.377h1.046c.255 0 .446-.046.573-.139.131-.095.196-.24.196-.434 0-.195-.065-.337-.196-.426-.127-.089-.318-.134-.573-.134h-1.046v1.133Zm0-1.496h.931c.233 0 .41-.046.531-.138.124-.093.186-.228.186-.406 0-.182-.062-.319-.186-.411-.121-.093-.298-.139-.531-.139h-.931v1.094Zm4.898-.306c.395 0 .699.09.912.268.214.175.32.438.32.788 0 .37-.116.65-.349.841-.229.188-.552.282-.969.282h-1.381v-3.344h.473v1.166h.994Zm-.106 1.802c.278 0 .489-.062.636-.186.15-.125.224-.308.224-.55 0-.236-.073-.41-.219-.52-.147-.112-.36-.168-.641-.168h-.888v1.424h.888Zm1.869.377v-3.344h.473v3.344h-.473Zm1.491-3.344h.55l.874 1.223.875-1.223h.559l-1.133 1.605 1.223 1.74h-.563l-.961-1.334-.955 1.333h-.55l1.218-1.72-1.137-1.624Zm6.186 3.344V53.85l.119.124h-1.261v-.415h2.757v.415h-1.262l.115-.124v3.053h-.468Zm2.965-1.901h1.72v.406h-1.72V55Zm.043 1.486h1.949v.415h-2.427v-3.344h2.36v.415h-1.882v2.514Zm2.638-2.93h.55l.874 1.224.875-1.223h.559l-1.133 1.605 1.224 1.74h-.564l-.961-1.334-.955 1.333h-.55l1.219-1.72-1.138-1.624Zm6.172 0h.477v3.345h-.477v-3.344Zm-1.921 3.345h-.478v-3.344h.478v3.344Zm1.964-1.49h-2.012v-.416h2.012v.415Zm3.317 1.529c-.255 0-.492-.043-.712-.13a1.737 1.737 0 0 1-.564-.358 1.693 1.693 0 0 1-.506-1.223 1.7 1.7 0 0 1 .134-.678 1.697 1.697 0 0 1 .936-.903c.217-.087.454-.13.712-.13.255 0 .489.043.703.13.216.082.404.202.563.358.163.153.287.333.373.54.089.207.134.434.134.683 0 .248-.045.476-.134.683-.086.207-.21.389-.373.545a1.721 1.721 0 0 1-.563.358 1.929 1.929 0 0 1-.703.125Zm0-.426c.185 0 .355-.032.512-.095a1.2 1.2 0 0 0 .41-.268 1.24 1.24 0 0 0 .273-.41c.067-.157.1-.327.1-.512a1.282 1.282 0 0 0-.373-.917 1.166 1.166 0 0 0-.41-.273 1.347 1.347 0 0 0-.512-.095c-.188 0-.361.032-.521.095a1.237 1.237 0 0 0-.411.273c-.117.114-.21.25-.277.406a1.354 1.354 0 0 0-.095.511c0 .185.032.355.095.511.067.156.16.293.277.411.118.115.255.204.411.268.16.063.333.095.521.095Zm2.629.426c-.048 0-.096-.004-.143-.01a1.83 1.83 0 0 1-.158-.029l.033-.425c.051.013.102.02.153.02.14 0 .252-.056.335-.168.082-.111.143-.28.181-.507.042-.226.069-.51.081-.855l.053-1.41h2.356v3.345h-.469V53.85l.115.124h-1.696l.105-.129-.038 1.109c-.01.331-.032.621-.067.87a2.512 2.512 0 0 1-.158.62.877.877 0 0 1-.272.373.66.66 0 0 1-.411.125Zm5.772 0c-.255 0-.492-.043-.712-.13a1.737 1.737 0 0 1-.564-.358A1.693 1.693 0 0 1 152 55.23c0-.245.044-.471.134-.678a1.697 1.697 0 0 1 .936-.903c.217-.087.454-.13.712-.13.255 0 .489.043.702.13.217.082.405.202.564.358.163.153.287.333.373.54.089.207.134.434.134.683 0 .248-.045.476-.134.683-.086.207-.21.389-.373.545a1.716 1.716 0 0 1-.564.358 1.92 1.92 0 0 1-.702.125Zm0-.426c.185 0 .355-.032.511-.095.16-.064.297-.153.411-.268a1.24 1.24 0 0 0 .273-.41c.067-.157.1-.327.1-.512a1.282 1.282 0 0 0-.373-.917 1.161 1.161 0 0 0-.411-.273 1.338 1.338 0 0 0-.511-.095c-.188 0-.361.032-.521.095a1.237 1.237 0 0 0-.411.273c-.118.114-.21.25-.277.406a1.354 1.354 0 0 0-.095.511c0 .185.032.355.095.511.067.156.159.293.277.411.118.115.255.204.411.268.16.063.333.095.521.095Zm2.88.387v-3.344h2.193l-.005.415h-1.835l.115-.12.005 3.05h-.473Zm3.097 0v-3.344h.473v2.58l1.978-2.58h.439v3.344h-.468v-2.575l-1.983 2.575h-.439Zm4.268 0v-3.344h.473v2.58l1.978-2.58h.439v3.344h-.468v-2.575l-1.983 2.575h-.439Zm1.438-3.578c-.261 0-.464-.058-.607-.172a.602.602 0 0 1-.215-.483h.339a.371.371 0 0 0 .134.291c.086.067.202.1.349.1a.546.546 0 0 0 .344-.1.366.366 0 0 0 .139-.291h.334a.593.593 0 0 1-.22.483c-.14.114-.339.172-.597.172Z" fill="#7F7F7F"/><path d="M81.14 46.729c-1.117 0-2.148-.18-3.092-.54a7.563 7.563 0 0 1-2.475-1.516 7.198 7.198 0 0 1-1.616-2.315c-.386-.878-.58-1.842-.58-2.893 0-1.051.194-2.016.58-2.894a6.976 6.976 0 0 1 1.616-2.295 7.393 7.393 0 0 1 2.475-1.537c.944-.359 1.975-.538 3.093-.538 1.13 0 2.162.18 3.093.538.945.36 1.763.872 2.455 1.537a6.977 6.977 0 0 1 1.616 2.295c.4.878.599 1.843.599 2.894 0 1.05-.2 2.022-.599 2.913a6.977 6.977 0 0 1-1.617 2.295 7.337 7.337 0 0 1-2.454 1.517c-.931.359-1.962.539-3.093.539Zm0-3.273a3.84 3.84 0 0 0 1.478-.28 3.379 3.379 0 0 0 1.197-.798 3.71 3.71 0 0 0 .798-1.277c.2-.492.3-1.038.3-1.636 0-.612-.1-1.158-.3-1.637a3.507 3.507 0 0 0-.798-1.257 3.259 3.259 0 0 0-1.197-.818 3.84 3.84 0 0 0-1.477-.28c-.532 0-1.031.093-1.497.28a3.493 3.493 0 0 0-1.197.818 3.91 3.91 0 0 0-.799 1.257c-.186.48-.279 1.025-.279 1.637 0 .598.093 1.144.28 1.636.199.492.465.918.798 1.277.346.346.745.612 1.197.798.466.187.965.28 1.497.28Zm9.876 2.993V32.48h3.892v10.836h5.368V32.48h3.891v13.97h-13.15Zm11.455 2.854V45.57l.818.878h-3.013v-3.133h5.807v5.987h-3.612Zm9.113-11.415h6.485v2.954h-6.485v-2.954Zm.279 5.508h7.304v3.053h-11.215V32.48h10.956v3.053h-7.045v7.863Zm18.895-10.916h3.951v13.97h-3.951V32.48Zm-5.389 13.97h-3.951V32.48h3.951v13.97ZM131.037 41h-5.947v-3.273h5.947v3.273Zm15.494 5.448-3.931-6.645 3.173-1.876 5.208 8.521h-4.45Zm-8.901 0V32.48h3.932v13.97h-3.932Zm2.794-5.348v-3.193h5.069v3.193h-5.069Zm5.728-1.217-3.652-.4 4.29-7.004h4.151l-4.789 7.404Zm4.368 6.565 6.167-13.969h3.891l6.187 13.97h-4.111l-4.83-12.034h1.557l-4.83 12.033h-4.031Zm3.373-2.714 1.018-2.913h6.825l1.017 2.913h-8.86Z" fill="#152242"/></svg>
